X:1
T:D minor            Daniel Read, 1793
T:Isaac Watts, 1717 (Psalm 14, Part 1)               86. 86. (C. M.)
T:Depravity
T:Transcribed from The Columbian Harmonist, 1793.
%%score [ 1 2 3 4 ]
L:1/8
Q:1/4=100
M:4/4
K:F
V:1 treble nm="Tr." snm="Tr."
V:2 treble nm="C." snm="C."
V:3 treble-8 nm="T." snm="T."
V:4 bass nm="B." snm="B."
V:1
 D4 | (A3 G ABcA | G6) G2 | A6 A2 | B4 A4 | A8 | z4 c4 | A6 d2 | (c3 d c2) c2 | A8 | z4 f4 | %11
w: 1.~By|na- * * * * *|* ture|all have|gone a-|stray;|Their|prac- tice|all~ _ _ the|same;|There's|
 (d3 c d2) cB | A4 A4 | A6 d2 | c8 | A4 (A4 | c2 A2 F2 c2 | A6) B2 | A4 A4 | A8 |] %20
w: none~ _ _ that *|fears his|Ma- ker's|hand,|There's none~|_ _ _ _|* that|loves his|name.|
V:2
 D4 | (F3 G FEDF | E6) E2 | F6 FE | D4 ^C4 | D8 | z4 A4 | F6 F2 | E6 E2 | F8 | z4 D4 | %11
w: 2.~Their|tongues~ _ _ _ _ _|_ are|used to *|speak de-|ceit,|Their|slan- ders|ne- ver|cease;|How|
 (D3 E F2) E2 | E4 A4 | (F2 E2 D2) GF | E8 | F4 (F2 D2 | A2 F2 D4 | C4 D2) G2 | F4 ^C4 | D8 |] %20
w: swift~ _ _ to|mis- chief|are~ _ _ their *|feet,|Nor know~ _|_ _ _|* * the|paths of|peace!|
V:3
 A4 | (d3 c defd | c6) dc | (A3 G F2) A2 | (dcde f2) ^c2 | A8 | z4 f4 | (c3 A d2) A2 | G6 G2 | F8 | %10
w: 3.~Such|seeds~ _ _ _ _ _|_ of *|sin,~ _ _ that|bit- * * * * ter|root,|In|eve- * * ry|heart are|found;|
 z4 A4 | (A3 B A2) G2 | c4 f4 | (d2 cA c2) dc | A8 | c4 (c2 A2 | F6 f2 | e2 c2 f2) ge | %18
w: Nor|can~ _ _ they|bear di-|vi- * * * ner *|fruit|Till grace~ _|_ _|* * * re- *|
 ^c4 (f2 e2) | d8 |] %20
w: fine the *|ground.|
V:4
 D,4 | (D,E,F,D, C,2 A,,2 | C,3 D, C,2) C,2 | (F,3 E, D,2) F,2 | G,4 A,4 | D,8 | z4 F,4 | F,6 F,2 | %8
 C,6 C,2 | F,8 | z4 D,4 | (D,3 A,, D,2) E,2 | A,,4 D,4 | (D,2 E,2 F,2) G,2 | A,8 | %15
"^____________________________________________\nEdited by B. C. Johnston, 2017\n   1. Measure 5, \nTenor\n: C changed to C#, to match with \nCounter\n.\n   2. Measure 19, Counter and Tenor: C changed to C#, to accord with Measure 5." F,4 (F,4 | %16
 F,G,F,E, D,2 A,2 | C2 A,2 F,2) G,2 | A,4 A,,4 | D,8 |] %20

